images/50273058.svg

<?xml version="1.0" encoding="UTF-8"?>
<svg xmlns="http://www.w3.org/2000/svg" xmlns:xlink="http://www.w3.org/1999/xlink" width="300pt" height="300pt" viewBox="0 0 300 300" version="1.1">
<defs>
<g>
<symbol overflow="visible" id="glyph0-0">
<path style="stroke:none;" d="M 0.796875 2.828125 L 0.796875 -11.28125 L 8.796875 -11.28125 L 8.796875 2.828125 Z M 1.703125 1.9375 L 7.90625 1.9375 L 7.90625 -10.390625 L 1.703125 -10.390625 Z M 1.703125 1.9375 "/>
</symbol>
<symbol overflow="visible" id="glyph0-1">
<path style="stroke:none;" d="M 1.578125 -11.671875 L 3.703125 -11.671875 L 8.875 -1.90625 L 8.875 -11.671875 L 10.40625 -11.671875 L 10.40625 0 L 8.28125 0 L 3.109375 -9.765625 L 3.109375 0 L 1.578125 0 Z M 1.578125 -11.671875 "/>
</symbol>
</g>
</defs>
<g id="surface17957">
<rect x="0" y="0" width="300" height="300" style="fill:rgb(100%,100%,100%);fill-opacity:1;stroke:none;"/>
<path style="fill:none;stroke-width:1.2;stroke-linecap:butt;stroke-linejoin:miter;stroke:rgb(0%,0%,100%);stroke-opacity:1;stroke-miterlimit:10;" d="M 205.242188 114.808594 L 190.550781 102.5625 "/>
<path style="fill:none;stroke-width:1.2;stroke-linecap:butt;stroke-linejoin:miter;stroke:rgb(0%,0%,0%);stroke-opacity:1;stroke-miterlimit:10;" d="M 190.550781 102.5625 L 175.859375 90.320312 "/>
<path style="fill:none;stroke-width:1.2;stroke-linecap:butt;stroke-linejoin:miter;stroke:rgb(0%,0%,100%);stroke-opacity:1;stroke-miterlimit:10;" d="M 208.066406 105.445312 L 196.3125 95.648438 "/>
<path style="fill:none;stroke-width:1.2;stroke-linecap:butt;stroke-linejoin:miter;stroke:rgb(0%,0%,0%);stroke-opacity:1;stroke-miterlimit:10;" d="M 196.3125 95.648438 L 184.558594 85.855469 "/>
<path style="fill:none;stroke-width:1.2;stroke-linecap:butt;stroke-linejoin:miter;stroke:rgb(0%,0%,0%);stroke-opacity:1;stroke-miterlimit:10;" d="M 241.140625 101.605469 L 223.191406 108.207031 "/>
<path style="fill:none;stroke-width:1.2;stroke-linecap:butt;stroke-linejoin:miter;stroke:rgb(0%,0%,100%);stroke-opacity:1;stroke-miterlimit:10;" d="M 223.191406 108.207031 L 205.242188 114.808594 "/>
<path style=" stroke:none;fill-rule:nonzero;fill:rgb(100%,100%,100%);fill-opacity:1;" d="M 199.242188 105.308594 L 211.242188 105.308594 L 211.242188 124.308594 L 199.242188 124.308594 Z M 199.242188 105.308594 "/>
<g style="fill:rgb(0%,0%,100%);fill-opacity:1;">
  <use xlink:href="#glyph0-1" x="199.242188" y="120.160156"/>
</g>
<path style="fill:none;stroke-width:1.2;stroke-linecap:butt;stroke-linejoin:miter;stroke:rgb(0%,0%,0%);stroke-opacity:1;stroke-miterlimit:10;" d="M 175.859375 90.320312 L 182.375 52.628906 "/>
<path style="fill:none;stroke-width:1.2;stroke-linecap:butt;stroke-linejoin:miter;stroke:rgb(0%,0%,0%);stroke-opacity:1;stroke-miterlimit:10;" d="M 175.859375 90.320312 L 139.960938 103.523438 "/>
<path style="fill:none;stroke-width:1.2;stroke-linecap:butt;stroke-linejoin:miter;stroke:rgb(0%,0%,0%);stroke-opacity:1;stroke-miterlimit:10;" d="M 182.375 52.628906 L 218.273438 39.425781 "/>
<path style="fill:none;stroke-width:1.2;stroke-linecap:butt;stroke-linejoin:miter;stroke:rgb(0%,0%,0%);stroke-opacity:1;stroke-miterlimit:10;" d="M 189.070312 59.753906 L 217.789062 49.191406 "/>
<path style="fill:none;stroke-width:1.2;stroke-linecap:butt;stroke-linejoin:miter;stroke:rgb(0%,0%,0%);stroke-opacity:1;stroke-miterlimit:10;" d="M 218.273438 39.425781 L 247.65625 63.914062 "/>
<path style="fill:none;stroke-width:1.2;stroke-linecap:butt;stroke-linejoin:miter;stroke:rgb(0%,0%,0%);stroke-opacity:1;stroke-miterlimit:10;" d="M 247.65625 63.914062 L 241.140625 101.605469 "/>
<path style="fill:none;stroke-width:1.2;stroke-linecap:butt;stroke-linejoin:miter;stroke:rgb(0%,0%,0%);stroke-opacity:1;stroke-miterlimit:10;" d="M 238.136719 66.148438 L 232.925781 96.300781 "/>
<path style="fill:none;stroke-width:1.2;stroke-linecap:butt;stroke-linejoin:miter;stroke:rgb(0%,0%,0%);stroke-opacity:1;stroke-miterlimit:10;" d="M 241.140625 101.605469 L 270.527344 126.09375 "/>
<path style="fill:none;stroke-width:1.2;stroke-linecap:butt;stroke-linejoin:miter;stroke:rgb(0%,0%,0%);stroke-opacity:1;stroke-miterlimit:10;" d="M 139.960938 103.523438 L 124.070312 92.882812 "/>
<path style="fill:none;stroke-width:1.2;stroke-linecap:butt;stroke-linejoin:miter;stroke:rgb(0%,0%,100%);stroke-opacity:1;stroke-miterlimit:10;" d="M 124.070312 92.882812 L 108.175781 82.242188 "/>
<path style="fill:none;stroke-width:1.2;stroke-linecap:butt;stroke-linejoin:miter;stroke:rgb(0%,0%,0%);stroke-opacity:1;stroke-miterlimit:10;" d="M 131.773438 108.875 L 119.0625 100.359375 "/>
<path style="fill:none;stroke-width:1.2;stroke-linecap:butt;stroke-linejoin:miter;stroke:rgb(0%,0%,100%);stroke-opacity:1;stroke-miterlimit:10;" d="M 119.0625 100.359375 L 106.347656 91.847656 "/>
<path style="fill:none;stroke-width:1.2;stroke-linecap:butt;stroke-linejoin:miter;stroke:rgb(0%,0%,0%);stroke-opacity:1;stroke-miterlimit:10;" d="M 129.539062 140.328125 L 139.960938 103.523438 "/>
<path style="fill:none;stroke-width:1.2;stroke-linecap:butt;stroke-linejoin:miter;stroke:rgb(0%,0%,100%);stroke-opacity:1;stroke-miterlimit:10;" d="M 108.175781 82.242188 L 78.117188 105.894531 "/>
<path style=" stroke:none;fill-rule:nonzero;fill:rgb(100%,100%,100%);fill-opacity:1;" d="M 102.175781 72.742188 L 114.175781 72.742188 L 114.175781 91.742188 L 102.175781 91.742188 Z M 102.175781 72.742188 "/>
<g style="fill:rgb(0%,0%,100%);fill-opacity:1;">
  <use xlink:href="#glyph0-1" x="102.175781" y="87.59375"/>
</g>
<path style="fill:none;stroke-width:1.2;stroke-linecap:butt;stroke-linejoin:miter;stroke:rgb(0%,0%,100%);stroke-opacity:1;stroke-miterlimit:10;" d="M 78.117188 105.894531 L 84.71875 123.84375 "/>
<path style="fill:none;stroke-width:1.2;stroke-linecap:butt;stroke-linejoin:miter;stroke:rgb(0%,0%,0%);stroke-opacity:1;stroke-miterlimit:10;" d="M 84.71875 123.84375 L 91.320312 141.792969 "/>
<path style="fill:none;stroke-width:1.2;stroke-linecap:butt;stroke-linejoin:miter;stroke:rgb(0%,0%,0%);stroke-opacity:1;stroke-miterlimit:10;" d="M 39.894531 107.355469 L 59.003906 106.625 "/>
<path style="fill:none;stroke-width:1.2;stroke-linecap:butt;stroke-linejoin:miter;stroke:rgb(0%,0%,100%);stroke-opacity:1;stroke-miterlimit:10;" d="M 59.003906 106.625 L 78.117188 105.894531 "/>
<path style=" stroke:none;fill-rule:nonzero;fill:rgb(100%,100%,100%);fill-opacity:1;" d="M 72.117188 96.394531 L 84.117188 96.394531 L 84.117188 115.394531 L 72.117188 115.394531 Z M 72.117188 96.394531 "/>
<g style="fill:rgb(0%,0%,100%);fill-opacity:1;">
  <use xlink:href="#glyph0-1" x="72.117188" y="111.246094"/>
</g>
<path style="fill:none;stroke-width:1.2;stroke-linecap:butt;stroke-linejoin:miter;stroke:rgb(0%,0%,0%);stroke-opacity:1;stroke-miterlimit:10;" d="M 91.320312 141.792969 L 61.257812 165.441406 "/>
<path style="fill:none;stroke-width:1.2;stroke-linecap:butt;stroke-linejoin:miter;stroke:rgb(0%,0%,0%);stroke-opacity:1;stroke-miterlimit:10;" d="M 91.320312 141.792969 L 129.539062 140.328125 "/>
<path style="fill:none;stroke-width:1.2;stroke-linecap:butt;stroke-linejoin:miter;stroke:rgb(0%,0%,0%);stroke-opacity:1;stroke-miterlimit:10;" d="M 94.796875 132.652344 L 125.375 131.480469 "/>
<path style="fill:none;stroke-width:1.2;stroke-linecap:butt;stroke-linejoin:miter;stroke:rgb(0%,0%,0%);stroke-opacity:1;stroke-miterlimit:10;" d="M 61.257812 165.441406 L 29.472656 144.160156 "/>
<path style="fill:none;stroke-width:1.2;stroke-linecap:butt;stroke-linejoin:miter;stroke:rgb(0%,0%,0%);stroke-opacity:1;stroke-miterlimit:10;" d="M 29.472656 144.160156 L 39.894531 107.355469 "/>
<path style="fill:none;stroke-width:1.2;stroke-linecap:butt;stroke-linejoin:miter;stroke:rgb(0%,0%,0%);stroke-opacity:1;stroke-miterlimit:10;" d="M 129.539062 140.328125 L 153.191406 170.390625 "/>
<path style="fill:none;stroke-width:1.2;stroke-linecap:butt;stroke-linejoin:miter;stroke:rgb(0%,0%,0%);stroke-opacity:1;stroke-miterlimit:10;" d="M 153.191406 170.390625 L 138.984375 205.902344 "/>
<path style="fill:none;stroke-width:1.2;stroke-linecap:butt;stroke-linejoin:miter;stroke:rgb(0%,0%,0%);stroke-opacity:1;stroke-miterlimit:10;" d="M 160.125 177.285156 L 148.757812 205.695312 "/>
<path style="fill:none;stroke-width:1.2;stroke-linecap:butt;stroke-linejoin:miter;stroke:rgb(0%,0%,0%);stroke-opacity:1;stroke-miterlimit:10;" d="M 191.050781 164.9375 L 153.191406 170.390625 "/>
<path style="fill:none;stroke-width:1.2;stroke-linecap:butt;stroke-linejoin:miter;stroke:rgb(0%,0%,0%);stroke-opacity:1;stroke-miterlimit:10;" d="M 138.984375 205.902344 L 162.632812 235.964844 "/>
<path style="fill:none;stroke-width:1.2;stroke-linecap:butt;stroke-linejoin:miter;stroke:rgb(0%,0%,0%);stroke-opacity:1;stroke-miterlimit:10;" d="M 162.632812 235.964844 L 200.492188 230.511719 "/>
<path style="fill:none;stroke-width:1.2;stroke-linecap:butt;stroke-linejoin:miter;stroke:rgb(0%,0%,0%);stroke-opacity:1;stroke-miterlimit:10;" d="M 165.136719 226.511719 L 195.425781 222.148438 "/>
<path style="fill:none;stroke-width:1.2;stroke-linecap:butt;stroke-linejoin:miter;stroke:rgb(0%,0%,0%);stroke-opacity:1;stroke-miterlimit:10;" d="M 200.492188 230.511719 L 214.703125 195 "/>
<path style="fill:none;stroke-width:1.2;stroke-linecap:butt;stroke-linejoin:miter;stroke:rgb(0%,0%,0%);stroke-opacity:1;stroke-miterlimit:10;" d="M 200.492188 230.511719 L 224.144531 260.574219 "/>
<path style="fill:none;stroke-width:1.2;stroke-linecap:butt;stroke-linejoin:miter;stroke:rgb(0%,0%,0%);stroke-opacity:1;stroke-miterlimit:10;" d="M 214.703125 195 L 191.050781 164.9375 "/>
<path style="fill:none;stroke-width:1.2;stroke-linecap:butt;stroke-linejoin:miter;stroke:rgb(0%,0%,0%);stroke-opacity:1;stroke-miterlimit:10;" d="M 205.261719 197.558594 L 186.34375 173.507812 "/>
</g>
</svg>

<svg xmlns="http://www.w3.org/2000/svg" xmlns:xlink="http://www.w3.org/1999/xlink" width="300pt" height="300pt" viewBox="0 0 300 300"><defs><symbol overflow="visible"><path d="M.797 2.828v-14.11h8V2.83zm.906-.89h6.203v-12.33H1.703zm0 0"/></symbol><symbol overflow="visible" id="a"><path d="M1.578-11.672h2.125l5.172 9.766v-9.766h1.53V0H8.282L3.11-9.766V0H1.577zm0 0"/></symbol></defs><g><path fill="#fff" d="M0 0h300v300H0z"/><path d="M205.242 114.81l-14.69-12.248" stroke-width="1.2" stroke="#00f" stroke-miterlimit="10" fill="none"/><path d="M190.55 102.563L175.86 90.32" stroke-width="1.2" stroke="#000" stroke-miterlimit="10" fill="none"/><path d="M208.066 105.445l-11.754-9.797" stroke-width="1.2" stroke="#00f" stroke-miterlimit="10" fill="none"/><path d="M196.313 95.648l-11.754-9.793M241.14 101.605l-17.95 6.602" stroke-width="1.2" stroke="#000" stroke-miterlimit="10" fill="none"/><path d="M223.19 108.207l-17.948 6.602" stroke-width="1.2" stroke="#00f" stroke-miterlimit="10" fill="none"/><path d="M199.242 105.31h12v19h-12zm0 0" fill="#fff"/><use xlink:href="#a" x="199.242" y="120.16" fill="#00f"/><path d="M175.86 90.32l6.515-37.69M175.86 90.32l-35.9 13.203M182.375 52.63l35.898-13.204M189.07 59.754l28.72-10.563M218.273 39.426l29.383 24.488M247.656 63.914l-6.515 37.69M238.137 66.148l-5.21 30.153M241.14 101.605l29.387 24.49M139.96 103.523l-15.89-10.64" stroke-width="1.2" stroke="#000" stroke-miterlimit="10" fill="none"/><path d="M124.07 92.883l-15.894-10.64" stroke-width="1.2" stroke="#00f" stroke-miterlimit="10" fill="none"/><path d="M131.773 108.875l-12.71-8.516" stroke-width="1.2" stroke="#000" stroke-miterlimit="10" fill="none"/><path d="M119.063 100.36l-12.715-8.512" stroke-width="1.2" stroke="#00f" stroke-miterlimit="10" fill="none"/><path d="M129.54 140.328l10.42-36.805" stroke-width="1.2" stroke="#000" stroke-miterlimit="10" fill="none"/><path d="M108.176 82.242l-30.06 23.653" stroke-width="1.2" stroke="#00f" stroke-miterlimit="10" fill="none"/><path d="M102.176 72.742h12v19h-12zm0 0" fill="#fff"/><use xlink:href="#a" x="102.176" y="87.594" fill="#00f"/><path d="M78.117 105.895l6.602 17.95" stroke-width="1.2" stroke="#00f" stroke-miterlimit="10" fill="none"/><path d="M84.72 123.844l6.6 17.95M39.895 107.355l19.11-.73" stroke-width="1.2" stroke="#000" stroke-miterlimit="10" fill="none"/><path d="M59.004 106.625l19.113-.73" stroke-width="1.2" stroke="#00f" stroke-miterlimit="10" fill="none"/><path d="M72.117 96.395h12v19h-12zm0 0" fill="#fff"/><use xlink:href="#a" x="72.117" y="111.246" fill="#00f"/><path d="M91.32 141.793L61.258 165.44M91.32 141.793l38.22-1.465M94.797 132.652l30.578-1.172M61.258 165.44l-31.785-21.28M29.473 144.16l10.422-36.805M129.54 140.328l23.65 30.063M153.19 170.39l-14.206 35.512M160.125 177.285l-11.367 28.41M191.05 164.938l-37.86 5.453M138.984 205.902l23.65 30.063M162.633 235.965l37.86-5.453M165.137 226.512l30.29-4.364M200.492 230.512L214.702 195M200.492 230.512l23.653 30.062M214.703 195l-23.652-30.063M205.262 197.56l-18.918-24.052" stroke-width="1.2" stroke="#000" stroke-miterlimit="10" fill="none"/></g></svg>
